X: 10
T: Tsen Brider   [Em]
T: Ten Brothers
S: Handout at Watertown Klezmer session 2019
M: C
L: 1/8
K: Em
"^Verse"[|\
"Em"B4 B2B2 | BB AB "E7"c2B2 | "Am"AA AA AA A2 | A4 z4 |\
"D"A2B2 c2B2 | (d2c2 B2)A2 | "G"B2G2 "C"G2G2 | "G"G4 |]
"^Chorus"[| "B7"B4 | "Em"B2G2 B2G2 | (B4 A2)G2 | "B"A2F2 F2F2 | F4 z4 |\
"Am"F2G2 A2B2 | (A2G2 F2)E2 | "Em"G2E2 E2E2 | E4 z4 |
"Em"(E2B,2) (E2B,2) | E8 | "C"(G2E2) (G2E2) | G8 |\
"B"F2G2 A2B2 | (A2G2 F2)E2 | "Em"G2E2 E2E2 | E4 |]
